packages/dnb-ui-lib/assets/icons/save.svg

<svg width="16" height="16" viewBox="0 0 16 16" fill="none" xmlns="http://www.w3.org/2000/svg">
<path fill-rule="evenodd" clip-rule="evenodd" d="M8 0C8.41421 0 8.75 0.335786 8.75 0.75V5.18934L9.46967 4.46967C9.76256 4.17678 10.2374 4.17678 10.5303 4.46967C10.8232 4.76256 10.8232 5.23744 10.5303 5.53033L8.53033 7.53033C8.23744 7.82322 7.76256 7.82322 7.46967 7.53033L5.46967 5.53033C5.17678 5.23744 5.17678 4.76256 5.46967 4.46967C5.76256 4.17678 6.23744 4.17678 6.53033 4.46967L7.25 5.18934V0.75C7.25 0.335786 7.58579 0 8 0ZM3.25 12.25C2.97386 12.25 2.75 12.4739 2.75 12.75C2.75 13.0261 2.97386 13.25 3.25 13.25H12.75C13.0261 13.25 13.25 13.0261 13.25 12.75C13.25 12.4739 13.0261 12.25 12.75 12.25H3.25ZM0 10.75C0 9.50736 1.00736 8.5 2.25 8.5H13.75C14.9926 8.5 16 9.50736 16 10.75V13.75C16 14.9926 14.9926 16 13.75 16H2.25C1.00736 16 0 14.9926 0 13.75V10.75ZM2.25 10C1.83579 10 1.5 10.3358 1.5 10.75V13.75C1.5 14.1642 1.83579 14.5 2.25 14.5H13.75C14.1642 14.5 14.5 14.1642 14.5 13.75V10.75C14.5 10.3358 14.1642 10 13.75 10H2.25ZM12.5 10.375C12.1548 10.375 11.875 10.6548 11.875 11C11.875 11.3452 12.1548 11.625 12.5 11.625C12.8452 11.625 13.125 11.3452 13.125 11C13.125 10.6548 12.8452 10.375 12.5 10.375Z" fill="black"/>
</svg>

<svg width="16" height="16" viewBox="0 0 16 16" fill="none" xmlns="http://www.w3.org/2000/svg"><path fill-rule="evenodd" clip-rule="evenodd" d="M8 0a.75.75 0 01.75.75v4.44l.72-.72a.75.75 0 111.06 1.06l-2 2a.75.75 0 01-1.06 0l-2-2a.75.75 0 011.06-1.06l.72.72V.75A.75.75 0 018 0zM3.25 12.25a.5.5 0 000 1h9.5a.5.5 0 000-1h-9.5zM0 10.75A2.25 2.25 0 012.25 8.5h11.5A2.25 2.25 0 0116 10.75v3A2.25 2.25 0 0113.75 16H2.25A2.25 2.25 0 010 13.75v-3zM2.25 10a.75.75 0 00-.75.75v3c0 .414.336.75.75.75h11.5a.75.75 0 00.75-.75v-3a.75.75 0 00-.75-.75H2.25zm10.25.375a.625.625 0 100 1.25.625.625 0 000-1.25z" fill="#000"/></svg>
